X: 4
T: Cloch Na Ceithre Mhile
R: reel
M: 4/4
L: 1/8
K: Edor
E2BE E2BE|E2dB AFEF|D2(3FED ADFE|DFF2 DFAF|E2BE E2ef|f/f/e fd edef|f/f/e fd edBe|dBAF DEED:|Eefe befe|EBB2 A2FD|EDAD BDA2|(3aba (3faf (3ded AE|FBee ef (3gab|ed BAB2ef|f/f/e fd edBe|dBAF DEED:|


Tune 989	Setting 14191

